app/dist/common/images/ball.svg

<svg height="18" viewBox="0 0 18 18" width="18" xmlns="http://www.w3.org/2000/svg"><path d="m0 0h18v18h-18z" fill="#4cadc7"/><g fill="#fff"><path d="m3.37671 11.5271c.32986-.5857.53139-.9571.87073-1.488 1.01345-1.5198 1.18096-2.02365 2.27868-3.43373.11659-.11103.56507-.70104.67572-.78859-.64362-.05496-1.38043.20133-1.60159.28498-.87668.41994-1.35281 1.01157-1.4373 1.1814-.1151.19561-.17036.47467-.08301.64474.05537.11513.19513.27928.50535.27928-.17184.20154-.3656.20154-.56495.20154-.33352 0-.50525-.20154-.59259-.39327-.08027-.22844-.02342-.50906.0596-.70516.28236-.67323 1.18095-1.20853 1.63516-1.37839.87085-.31097 1.32073-.422 2.30655-.36134.1949-.20155.44998-.36684.59406-.45348.24902-.16962.50388-.16962.67571-.14249.16717.02759.19491.17008.16717.28384-.02741.08322-.08861.13816-.16717.22434-.03208-.11376-.14442-.27905-.37005-.19698-.11201.05586-.22276.14226-.50523.36275.25175.06769.42965.14705.54166.24988.07934.07338.13189.14246.16179.20334.09316.19104.19923.58978-.08734.98444-.13976.16825-.47773.67163-1.49257.8417.25475.16962.70461.42155.5097 1.18143-.05549.2793-.3656 1.09957-1.15332 1.48807-.25039.1151-.62032.1699-.98583 0-.19513-.0821-.33935-.2519-.45432-.3885l.22722-.50955c-.02329.08777-.11225.22459-.0845.30825.11647.2013.48231.2756.73533.2877.17709.0085.33476-.0413.47465-.1411.51996-.37138 1.02372-1.44633.73107-1.80475-.11234-.17601-.27665-.25193-.50385-.27904-.19514 0-.38857.02232-.56498.16963l.33776-.59139c-.02329.08182.01403.09597.03208.10918.09431.0709.42234.08367.69899 0 .76445-.25144 1.24195-1.12077 1.15893-1.51519-.0266-.09461-.11201-.28358-.50514-.39279-.11507.08205-.50969.59-.84755 1.09772-.47761.70108-.98273 1.48398-1.40806 2.35895-.36698.67349-.53722 1.12698-.84298 1.85358z"/><path d="m12.6386 7.57749c-.032.36521.3073.80365 1.1227.74481.3668-.0278.8376-.15548 1.2368-.26627v.33947c-.5102.12927-.857.20154-1.3751.35266-.8112.24192-1.1255.33355-1.9455.61307-.7877.31073-2.22859.82937-3.54405 1.57587-1.22068.6923-1.86648 1.1666-2.95587 2.0507-.88169.7156-1.35679 1.1515-2.14487 1.9686v-1.4607c.42681-.3944 2.22788-1.6303 3.4931-2.3024 1.29743-.678 2.36762-1.1857 3.88649-1.8047.6219-.22456 2.1681-.68646 2.5116-.81462-.2327-.05471-.3421-.06224-.5096-.19284-.1235-.09624-.1843-.17079-.2548-.31076-.2504.25192-.3667.33832-.5328.47605-.3161.22476-.7427.48217-1.0426.3253-.1283-.06587-.1745-.16164-.2272-.29775-.2505.31076-.9596 1.09798-1.26981.84606-.05528-.03144-.10606-.20132-.10606-.31074-.17186.25627-.33364.42587-.50982.56266-.26787.21183-.57342.14685-.67573.0561-.06084-.05037-.11633-.16118-.08425-.44892.04646-.42588.47315-1.08931.70916-1.38294.32027-.3942.61142-.62741.86193-.61306.153.00436.26319.05382.31856.1947l-.17285.35086c.01335-.08275.00547-.13884-.03073-.15275-.07637-.04536-.17-.0155-.26236.04859-.07537.0522-.15688.12014-.22301.19218-.10766.11717-.22299.25786-.31537.39897-.19284.29318-.29662.60598-.18061.73888.06746.08917.23555.03947.39379-.09663.07421-.0641.1223-.10787.2126-.24078.19744-.29067.37109-.6762.40569-.88846l.17891-.36885s.07423-.12223.12972-.23303l.45434-.05879c-.1719.36703-.70474 1.51972-.56635 1.60316.13976.08643.53285-.30799.70475-.50385.0275-.28498.0829-.48036.1716-.70515.1384-.33536.3888-.87067.699-1.31957.4267-.5941.9318-1.2131 1.2698-1.26805.1106-.02713.2505 0 .2824.17008 0 .02713.0276.19697-.1122.50387-.115.25578-.3421.65041-.5082.9021-.339.53555-.6216.86934-.8766 1.15269-.083.08367-.2036.2159-.3932.39419l.0876-.44888c.4222-.33835.7556-.84196 1.1257-1.46482.0842-.16572.2779-.53528.1671-.61327-.0829-.06065-.4222.21887-.8153.86929-.1994.30641-.5053 1.01157-.4775 1.2088l-.0876.44888c-.0144.21453.0468.38871.3976.32077.2506-.04148.4179-.15092.8722-.66047.083-.44753.1661-.70491.338-1.06628.1702-.42153.3932-.79156.533-1.01588.272-.4129.463-.57294.6756-.75556.1441-.12813.5603-.33947.7366-.19743.0786.05927.0554.25625-.0088.45346-.0567.14682-.2183.53966-.5008.92563-.2226.30618-.5009.65478-.7599.92379-.1531.16117-.3657.42452-.5057.53555l.0514-.39353c.321-.24689.7832-.85129 1.0976-1.40575.1166-.20997.2841-.53531.1444-.55811-.1996-.08663-.6757.61307-.871.95255-.1992.36543-.3393.77284-.3684.9931z"/></g></svg>

<!-- by TradingView --><svg width="18" height="18" viewBox="0 0 18 18" xmlns="http://www.w3.org/2000/svg"><rect width="18" height="18" fill="#4CADC7"/><path d="M3.37671 11.5271C3.70657 10.9414 3.9081 10.57 4.24744 10.0391C5.26089 8.5193 5.4284 8.01545 6.52612 6.60537C6.64271 6.49434 7.09119 5.90433 7.20184 5.81678C6.55822 5.76182 5.82141 6.01811 5.60025 6.10176C4.72357 6.5217 4.24744 7.11333 4.16295 7.28316C4.04785 7.47877 3.99259 7.75783 4.07994 7.9279C4.13531 8.04303 4.27507 8.20718 4.58529 8.20718C4.41345 8.40872 4.21969 8.40872 4.02034 8.40872C3.68682 8.40872 3.51509 8.20718 3.42775 8.01545C3.34748 7.78701 3.40433 7.50639 3.48735 7.31029C3.76971 6.63706 4.6683 6.10176 5.12251 5.9319C5.99336 5.62093 6.44324 5.5099 7.42906 5.57056C7.62396 5.36901 7.87904 5.20372 8.02312 5.11708C8.27214 4.94746 8.527 4.94746 8.69883 4.97459C8.866 5.00218 8.89374 5.14467 8.866 5.25843C8.83859 5.34165 8.77739 5.39659 8.69883 5.48277C8.66675 5.36901 8.55441 5.20372 8.32878 5.28579C8.21677 5.34165 8.10602 5.42805 7.82355 5.64854C8.0753 5.71623 8.2532 5.79559 8.36521 5.89842C8.44455 5.9718 8.4971 6.04088 8.527 6.10176C8.62016 6.2928 8.72623 6.69154 8.43966 7.0862C8.2999 7.25445 7.96193 7.75783 6.94709 7.9279C7.20184 8.09752 7.6517 8.34945 7.45679 9.10933C7.4013 9.38863 7.09119 10.2089 6.30347 10.5974C6.05308 10.7125 5.68315 10.7673 5.31764 10.5974C5.12251 10.5153 4.97829 10.3455 4.86332 10.2089L5.09054 9.69935C5.06725 9.78712 4.97829 9.92394 5.00604 10.0076C5.12251 10.2089 5.48835 10.2832 5.74137 10.2953C5.91846 10.3038 6.07613 10.254 6.21602 10.1542C6.73598 9.78282 7.23974 8.70787 6.94709 8.34945C6.83475 8.17344 6.67044 8.09752 6.44324 8.07041C6.2481 8.07041 6.05467 8.09273 5.87826 8.24004L6.21602 7.64865C6.19273 7.73047 6.23005 7.74462 6.2481 7.75783C6.34241 7.82873 6.67044 7.8415 6.94709 7.75783C7.71154 7.50639 8.18904 6.63706 8.10602 6.24264C8.07942 6.14803 7.99401 5.95906 7.60088 5.84985C7.48581 5.9319 7.09119 6.43985 6.75333 6.94757C6.27572 7.64865 5.7706 8.43155 5.34527 9.30652C4.97829 9.98001 4.80805 10.4335 4.50229 11.1601L3.37671 11.5271Z" fill="white"/><path d="M12.6386 7.57749C12.6066 7.9427 12.9459 8.38114 13.7613 8.3223C14.1281 8.2945 14.5989 8.16682 14.9981 8.05603V8.3955C14.4879 8.52477 14.1411 8.59704 13.623 8.74816C12.8118 8.99008 12.4975 9.08171 11.6775 9.36123C10.8898 9.67196 9.44891 10.1906 8.13345 10.9371C6.91277 11.6294 6.26697 12.1037 5.17758 12.9878C4.29589 13.7034 3.82079 14.1393 3.03271 14.9564V13.4957C3.45952 13.1013 5.26059 11.8654 6.52581 11.1933C7.82324 10.5153 8.89343 10.0076 10.4123 9.3886C11.0342 9.16404 12.5804 8.70214 12.9239 8.57398C12.6912 8.51927 12.5818 8.51174 12.4143 8.38114C12.2908 8.2849 12.23 8.21035 12.1595 8.07038C11.9091 8.3223 11.7928 8.4087 11.6267 8.54643C11.3106 8.77119 10.884 9.0286 10.5841 8.87173C10.4558 8.80586 10.4096 8.71009 10.3569 8.57398C10.1064 8.88474 9.3973 9.67196 9.08709 9.42004C9.03181 9.3886 8.98103 9.21872 8.98103 9.1093C8.80917 9.36557 8.64739 9.53517 8.47121 9.67196C8.20334 9.88379 7.89779 9.81881 7.79548 9.72806C7.73464 9.67769 7.67915 9.56688 7.71123 9.27914C7.75769 8.85326 8.18438 8.18983 8.42039 7.8962C8.74066 7.502 9.03181 7.26879 9.28232 7.28314C9.43532 7.2875 9.54551 7.33696 9.60088 7.47784L9.42803 7.8287C9.44138 7.74595 9.4335 7.68986 9.3973 7.67595C9.32093 7.63059 9.2273 7.66045 9.13494 7.72454C9.05957 7.77674 8.97806 7.84468 8.91193 7.91672C8.80427 8.03389 8.68894 8.17458 8.59656 8.31569C8.40372 8.60887 8.29994 8.92167 8.41595 9.05457C8.48341 9.14374 8.6515 9.09404 8.80974 8.95794C8.88395 8.89384 8.93204 8.85007 9.02234 8.71716C9.21978 8.42649 9.39343 8.04096 9.42803 7.8287L9.60694 7.45985C9.60694 7.45985 9.68117 7.33762 9.73666 7.22682L10.191 7.16803C10.0191 7.53506 9.48626 8.68775 9.62465 8.77119C9.76441 8.85762 10.1575 8.4632 10.3294 8.26734C10.3569 7.98236 10.4123 7.78698 10.501 7.56219C10.6394 7.22683 10.8898 6.69152 11.2 6.24262C11.6267 5.64852 12.1318 5.02952 12.4698 4.97457C12.5804 4.94744 12.7203 4.97457 12.7522 5.14465C12.7522 5.17178 12.7798 5.34162 12.64 5.64852C12.525 5.9043 12.2979 6.29893 12.1318 6.55062C11.7928 7.08617 11.5102 7.41996 11.2552 7.70331C11.1722 7.78698 11.0516 7.91921 10.862 8.0975L10.9496 7.64862C11.3718 7.31027 11.7052 6.80666 12.0753 6.1838C12.1595 6.01808 12.3532 5.64852 12.2424 5.57053C12.1595 5.50988 11.8202 5.7894 11.4271 6.43982C11.2277 6.74623 10.9218 7.45139 10.9496 7.64862L10.862 8.0975C10.8476 8.31203 10.9088 8.48621 11.2596 8.41827C11.5102 8.37679 11.6775 8.26735 12.1318 7.7578C12.2148 7.31027 12.2979 7.05289 12.4698 6.69152C12.64 6.26999 12.863 5.89996 13.0028 5.67564C13.2748 5.26274 13.4658 5.1027 13.6784 4.92008C13.8225 4.79195 14.2387 4.58061 14.415 4.72265C14.4936 4.78192 14.4704 4.9789 14.4062 5.17611C14.3495 5.32293 14.1879 5.71577 13.9054 6.10174C13.6828 6.40792 13.4045 6.75652 13.1455 7.02553C12.9924 7.1867 12.7798 7.45005 12.6398 7.56108L12.6912 7.16755C13.0122 6.92066 13.4744 6.31626 13.7888 5.7618C13.9054 5.55183 14.0729 5.22649 13.9332 5.20369C13.7336 5.11706 13.2575 5.81676 13.0622 6.15624C12.863 6.52167 12.7229 6.92908 12.6938 7.14934L12.6386 7.57749Z" fill="white"/></svg>
